!!!!SEGMENT: pl-kk--kk-i-7--058-003_palestrina-giovanni-pierluigi-da--missa-inviolata-sanctus.krn
!!!cenid: 16xx:896
!!!COM: Palestrina, Giovanni Pierluigi da
!!!COM-rismid: pe1904
!!!CDT: ~1525-1594/02/02
!!!CNT: Italian
!!!OPR: Missa Inviolata
!!!OTL: Sanctus
!!!OMV: 003
!!!PDT:
!!!AGN: Sacred; Mass
!!!SMS-siglum: PL-Kk
!!!SMS-shelfmark: Kk.I.7
!!!SMS-shelfwork: 058-003 M
!!!SMS-variant:
!!!SMS-altvar:
!!!NIFC-rismid: 300258135
!!!URL-scan: http://repozytorium.nifc.pl/skany/pl-kk-nut--i-7
!!!ONB-nifc: UWAGA: C (skan 0056-0058, s.105-108), A (0140-0142, s.101-105), T(0217-0219, s.97-100), B(0304-0305, s.94-97). Części Mszy: 1. Kyrie, 2. Et in terra, 3. Sanctus, 4. Agnus Dei
!!!key:
**kern	**text	**kern	**text	**kern	**text	**kern	**text
*part4	*part4	*part3	*part3	*part2	*part2	*part1	*part1
*staff4	*staff4	*staff3	*staff3	*staff2	*staff2	*staff1	*staff1
*Ibass	*	*Itenor	*	*Ialto	*	*Isoprn	*
*I"[BASSVS.]	*	*I"[TENOR.]	*	*I"[ALTVS.]	*	*I"[CANTVS.]	*
*I'B	*	*I'T	*	*I'A	*	*I'S	*
*clefF4	*	*clefC4	*	*clefC3	*	*clefC1	*
*k[b-]	*	*k[b-]	*	*k[b-]	*	*k[b-]	*
*F:	*	*F:	*	*F:	*	*F:	*
*M2/1	*	*M2/1	*	*M2/1	*	*M2/1	*
*met(C|)	*	*met(C|)	*	*met(C|)	*	*met(C|)	*
=1-	=1-	=1-	=1-	=1-	=1-	=1-	=1-
00r	.	00r	.	1r	.	0f/	San-
.	.	.	.	1F/	San-	.	.
=2-	=2-	=2-	=2-	=2-	=2-	=2-	=2-
!	!	!	!	!	!	!LO:TX:t=P:problem=kreska pseudotaktowa	!
.	.	.	.	2.B-/	.	1f/	-ct(us)
.	.	.	.	4c/	.	.	.
.	.	.	.	4d\	.	1f/	San-
.	.	.	.	4e\	.	.	.
.	.	.	.	1f\	.	.	.
=3-	=3-	=3-	=3-	=3-	=3-	=3-	=3-
!	!	!LO:TX:t=P:problem=kreska pseudotaktowa	!	!	!	!	!
0r	.	1r	.	.	.	0g\	.
.	.	.	.	4e\	.	.	.
!	!	!	!	!LO:TX:t=P:problem=kreska pseudotaktowa	!	!	!
.	.	.	.	4d\	.	.	.
.	.	1C/	San-	1e\	.	.	.
=4-	=4-	=4-	=4-	=4-	=4-	=4-	=4-
*	*	*	*	*2\right	*	*	*
1r	.	2.F/	.	2.f\	.	0a\	.
.	.	4G/	.	8e\L	.	.	.
.	.	.	.	8d\J	.	.	.
1FF/	San-	4A\	.	1c\	.	.	.
.	.	4B-\	.	.	.	.	.
.	.	4c\	.	.	.	.	.
.	.	4A\	.	.	.	.	.
=5-	=5-	=5-	=5-	=5-	=5-	=5-	=5-
2.BB-/	.	1.d\	.	2.B-/	.	1b-\	.
!LO:TX:t=P:problem=kreska pseudotaktowa	!	!	!	!	!	!	!
4C/	.	.	.	8A/L	.	.	.
!	!	!	!	!LO:TX:t=P:problem=kreska pseudotaktowa	!	!	!
.	.	.	.	8G/J	.	.	.
4D\	.	.	.	4F/	.	1a\	.
4E\	.	.	.	4G/	.	.	.
*	*	*2\right	*	*	*	*	*
!	!	!LO:TX:t=P:problem=kreska pseudotaktowa	!	!	!	!	!
1F\	.	2c\	-ctus	4A/	.	.	.
.	.	.	.	4B-/	.	.	.
=6-	=6-	=6-	=6-	=6-	=6-	=6-	=6-
!	!	!	!	!LO:TX:t=P:problem=kreska pseudotaktowa	!	!	!
.	.	1r	.	1c\	-ctus	0g\	.
4E\	.	.	.	.	.	.	.
4D\	.	.	.	.	.	.	.
1E\	.	1C/	San-	2r	.	.	.
*	*	*	*	*lig	*ij	*	*
.	.	.	.	1c\	San-	.	.
=7-	=7-	=7-	=7-	=7-	=7-	=7-	=7-
!LO:TX:t=P:problem=kreska pseudotaktowa	!	!	!	!	!	!	!
0F\	-ctus	(2.F/	.	.	.	0a\	.
.	.	.	.	1f\	.	.	.
.	.	4G/)	.	.	.	.	.
.	.	4A\	.	.	.	.	.
.	.	4B-\	.	.	.	.	.
*	*	*	*	*Xlig	*	*	*
.	.	1c\	.	2e\	.	.	.
=8-	=8-	=8-	=8-	=8-	=8-	=8-	=8-
!	!	!	!	!LO:TX:t=P:problem=kreska pseudotaktowa	!	!	!
0G\	San-	.	.	0d\	ctus	0g\	.
.	.	4B-\	.	.	.	.	.
!	!	!LO:TX:t=P:problem=kreska pseudotaktowa	!	!	!	!	!
.	.	4A\	.	.	.	.	.
.	.	2.B-\	.	.	.	.	.
.	.	4B-,\	-ctus	.	.	.	.
=9-	=9-	=9-	=9-	=9-	=9-	=9-	=9-
*2\right	*	*	*ij	*	*Xij	*	*
2A\	.	2c\	San-	1r	.	00f/	.
1B-\	.	2d\	.	.	.	.	.
.	.	1c\	.	1F/	San-	.	.
2A\	.	.	.	.	.	.	.
=10-	=10-	=10-	=10-	=10-	=10-	=10-	=10-
1B-\	.	0d\	.	2.B-/	.	.	.
.	.	.	.	4c/	.	.	.
!LO:TX:t=P:problem=kreska pseudotaktowa	!	!	!	!	!	!	!
1BB-/	-ct(us).	.	.	4d\	.	.	.
.	.	.	.	4e\	.	.	.
.	.	.	.	1f\	.	.	.
=11-	=11-	=11-	=11-	=11-	=11-	=11-	=11-
!	!	!LO:TX:t=P:problem=kreska pseudotaktowa	!	!	!	!	!
1r	.	0c\	ctus	.	.	0g\	.
.	.	.	.	4e\	.	.	.
!	!	!	!	!LO:TX:t=P:problem=kreska pseudotaktowa	!	!	!
.	.	.	.	4d\	.	.	.
!	!	!	!	!LO:LB:g=original	!	!	!
1C/	San-	.	.	1e\	.	.	.
=12-	=12-	=12-	=12-	=12-	=12-	=12-	=12-
!	!	!LO:TX:t=P:problem=kreska pseudotaktowa	!	!	!	!	!
2.F\	.	0r	.	2.A/	.	0.f/	-ctus
!LO:TX:t=P:problem=kreska pseudotaktowa	!	!	!	!	!	!	!
4G\	.	.	.	4B-/	.	.	.
2A\	.	.	.	2c\	.	.	.
!	!	!	!	!LO:TX:t=P:problem=kreska pseudotaktowa	!	!	!
1B-\	.	.	.	2d\	.	.	.
=13-	=13-	=13-	=13-	=13-	=13-	=13-	=13-
*	*	*	*Xij	*lig	*	*	*
!	!	!	!	!	!	!LO:TX:t=P:problem=kreska pseudotaktowa	!
.	.	1F/	San-	1c\	.	.	.
2A\	.	.	.	.	.	.	.
*	*	*	*	*	*	*	*ij
0G\	.	2.B-\	.	1d\	.	0g\	San-
.	.	4c\	.	.	.	.	.
*	*	*	*	*Xlig	*	*	*
=14-	=14-	=14-	=14-	=14-	=14-	=14-	=14-
*	*	*	*	*lig	*	*	*
.	.	2d\	.	1B-/	.	.	.
.	.	2e\	.	.	.	.	.
!LO:TX:t=P:problem=kreska pseudotaktowa	!	!LO:TX:t=P:problem=kreska pseudotaktowa	!	!	!	!	!
1F\	-ctus	1f\,	ctus	1c\	.	0.a\	-ctus
*	*	*	*	*Xlig	*	*	*
!	!	!LO:LB:g=original	!	!	!	!	!
=15-	=15-	=15-	=15-	=15-	=15-	=15-	=15-
!	!	!	!	!	!	!LO:TX:t=P:problem=kreska pseudotaktowa	!
2r	.	2.c\	Do-	2A/	.	.	.
!	!	!	!	!LO:TX:t=P::problem=kreska pseudotaktowa&colon;między nutą a kropką	!	!	!
2.F\	Do-	.	.	[>2f\	.	.	.
.	.	4c\	-mi-	.	.	.	.
!	!	!	!	!LO:N:xstem:cue	!	!	!
.	.	2c\	-n(us)	4f\]	.	.	.
4F\	-mi-	.	.	4e\	.	.	.
!LO:TX:t=P:problem=kreska pseudotaktowa	!	!	!	!	!	!	!
2F\	-n(us)	2d\	De-	1d\	.	.	.
=16-	=16-	=16-	=16-	=16-	=16-	=16-	=16-
2G\	De-	2B-\	-us	.	.	00r	.
2E\	-us	1c\	Sab-	2c\	.	.	.
2F\	Sab-	.	.	0d\	-ctus	.	.
1G\	.	2B-\	.	.	.	.	.
=17-	=17-	=17-	=17-	=17-	=17-	=17-	=17-
*	*	*lig	*	*	*	*	*
!	!	!	!	!LO:TX:t=P:problem=kreska pseudotaktowa	!	!	!
.	.	1A\	.	.	.	.	.
1F\	.	.	.	.	.	.	.
.	.	1G/	.	2r	.	.	.
2E\	-ba-	.	.	2.c\	Do-	.	.
*	*	*Xlig	*	*	*	*	*
!LO:LB:g=original	!	!	!	!	!	!	!
=18-	=18-	=18-	=18-	=18-	=18-	=18-	=18-
!LO:TX:t=P:problem=kreska pseudotaktowa	!	!	!	!	!	!	!
1F\	-oth,	1A\	.	.	.	2r	.
.	.	.	.	4c\	-mi-	.	.
!	!	!	!	!LO:TX:t=P:problem=kreska pseudotaktowa	!	!	!
*	*	*	*	*	*	*	*Xij
.	.	.	.	2c\	-n(us)	2.f/	Do-
1r	.	2.B-\	.	1d\	De-	.	.
.	.	.	.	.	.	4f/	-mi-
!	!	!	!	!	!	!LO:TX:t=P:problem=kreska pseudotaktowa	!
.	.	.	.	.	.	2f/	-n(us)
.	.	4B-\	-ba-	.	.	.	.
=19-	=19-	=19-	=19-	=19-	=19-	=19-	=19-
!	!	!LO:TX:t=P:problem=kreska pseudotaktowa	!	!	!	!	!
2r	.	1G/,	-oth	2B-/	.	2g/	De-
2C/	Do-	.	.	1c\	-us	2e/	.
2D\	-mi-	1r	.	.	.	2f/	-us
*	*	*	*	*	*	*lig	*
2E\	-n(us)	.	.	2B-/	.	1g\	Sab-
=20-	=20-	=20-	=20-	=20-	=20-	=20-	=20-
*lig	*	*	*	*lig	*	*	*
1F\	De-	2r	.	1A/	Sab-	.	.
.	.	2.c\	Do-	.	.	1f/	.
1C/	.	.	.	1G/	.	.	.
.	.	4c\	-mi-	.	.	.	.
*Xlig	*	*	*	*Xlig	*	*Xlig	*
.	.	2c\	-n(us)	.	.	2e/	-ba-
=21-	=21-	=21-	=21-	=21-	=21-	=21-	=21-
!LO:TX:t=P:problem=kreska pseudotaktowa	!	!	!	!	!	!	!
*	*	*	*	*lig	*	*	*
!	!	!	!	!	!	!LO:TX:t=P:problem=kreska pseudotaktowa	!
1BB-/,	-us	2d\	De-	1B-/	.	0f/	-oth.
.	.	2B-\	-us	.	.	.	.
1F\	Sab-	2c\	.	1A/	.	.	.
.	.	1d\	Sab-	.	.	.	.
*	*	*lig	*	*	*	*	*
*	*	*	*	*Xlig	*	*	*
!	!	!	!	!	!	!LO:LB:g=original	!
=22-	=22-	=22-	=22-	=22-	=22-	=22-	=22-
2G\	.	.	.	2B-/	.	2r	.
*	*	*	*	*	*	*2\right	*
2C/	.	1c\	.	2c\	-ba-	2.g\	Do-
2.G\	.	.	.	1d\	-oth	.	.
.	.	.	.	.	.	4g\	-mi-
!	!	!	!	!LO:TX:t=P:problem=kreska pseudotaktowa	!	!	!
*	*	*Xlig	*	*	*	*	*
.	.	2B-\	-ba-	.	.	2g\	-n(us)
4G\	-ba-	.	.	.	.	.	.
=23-	=23-	=23-	=23-	=23-	=23-	=23-	=23-
!LO:TX:t=P:problem=kreska pseudotaktowa	!	!LO:TX:t=P:problem=kreska pseudotaktowa	!	!	!	!	!
1F\,	-oth.	1c\	-oth	2r	.	2a\	De-
!	!	!	!	!	!	!LO:TX:t=P:problem=kreska pseudotaktowa	!
.	.	.	.	2.c\	Do-	2f/	.
0r	.	2r	.	.	.	2g\	-us
.	.	.	.	4c\	-mi-	.	.
!	!	!	!	!LO:TX:t=P:problem=kreska pseudotaktowa	!	!	!
*	*	*	*	*	*	*lig	*
.	.	2F/	Do-	2c\	-n(us)	1a\	Sab-
!	!	!	!	!LO:LB:g=original	!	!	!
=24-	=24-	=24-	=24-	=24-	=24-	=24-	=24-
.	.	2F/	-mi-	2d\	De-	.	.
.	.	2G/	-n(us)	2B-/	us	1g\	.
2r	.	1A\	De-	2c\	.	.	.
*	*	*	*	*	*	*Xlig	*
!LO:TX:t=P:problem=kreska pseudotaktowa	!	!	!	!	!	!	!
*	*	*	*	*lig	*	*	*
2D\	Sab-	.	.	1d\	Sab-	2f/	-ba-
=25-	=25-	=25-	=25-	=25-	=25-	=25-	=25-
!	!	!	!	!	!	!LO:TX:t=P:problem=kreska pseudotaktowa	!
2E-X\	.	2G/	.	.	.	0g\	-oth
2C/	.	2c\	.	1c\	.	.	.
2.G\	.	2d\	us	.	.	.	.
*	*	*	*	*Xlig	*	*	*
*	*	*custos:f	*	*	*	*	*
!	!	!LO:TX:t=P:problem=kreska pseudotaktowa	!	!	!	!	!
!	!	!	!	!LO:TX:t=P:problem=kreska pseudotaktowa	!	!	!
.	.	2e\	.	2B-/	.	.	.
4G\	ba-	.	.	.	.	.	.
!	!	!LO:LB:g=original	!	!	!	!	!
=26-	=26-	=26-	=26-	=26-	=26-	=26-	=26-
!LO:TX:t=P:problem=kreska pseudotaktowa	!	!	!	!	!	!	!
1F\	-oth.	2.f\	Sab-	2c\	.	2r	.
.	.	.	.	1f\	.	2.a\	Do-
.	.	4e\	.	.	.	.	.
0r	.	2d\	.	.	.	.	.
.	.	.	.	.	.	4a\	-mi-
.	.	2c\	.	2e\	-ba-	2a\	-n(us)
=27-	=27-	=27-	=27-	=27-	=27-	=27-	=27-
.	.	2.B-\	.	0.d\	-oth.	2b-\	De-
.	.	.	.	.	.	2g\	.
.	.	4A/	.	.	.	.	.
2r	.	2F/	.	.	.	2a\	-us
*	*	*	*	*	*	*lig	*
2G\	Ple-	2G/	-ba-	.	.	1b-\	Sab-
=28-	=28-	=28-	=28-	=28-	=28-	=28-	=28-
!	!	!LO:TX:t=P:problem=kreska pseudotaktowa	!	!LO:TX:t=P:problem=kreska pseudotaktowa	!	!	!
2G\	-ni	1D/,	-oth	.	.	.	.
!LO:TX:t=P:problem=kreska pseudotaktowa	!	!	!	!	!	!	!
2F\	sunt	.	.	.	.	1a\	.
1B-\	cae-	2.d\	Sab-	2r	.	.	.
*	*	*	*	*	*	*Xlig	*
.	.	.	.	2d\	Ple-	2g\	-ba-
.	.	4e\	.	.	.	.	.
=29-	=29-	=29-	=29-	=29-	=29-	=29-	=29-
1A\	.	2f\	ba-	2d\	-ni	0.a\	-oth
!	!	!	!	!LO:TX:t=P:problem=kreska pseudotaktowa	!	!	!
.	.	2e\	.	2c\	sunt	.	.
!LO:TX:t=P:problem=kreska pseudotaktowa	!	!LO:TX:t=P:problem=kreska pseudotaktowa	!	!	!	!	!
1D\,	-li	1d\	-oth.	2.f\	cae-	.	.
.	.	.	.	4e\	.	.	.
=30-	=30-	=30-	=30-	=30-	=30-	=30-	=30-
!	!	!	!	!	!	!LO:TX:t=P:problem=kreska pseudotaktowa	!
2.F\	et	1r	.	2d\	.	.	.
!	!	!	!	!LO:TX:t=P:problem=kreska pseudotaktowa	!	!	!
.	.	.	.	2c\	.	.	.
4E\	.	.	.	.	.	.	.
2D/	.	2r	.	2B-/	-li	0r	.
!LO:TX:t=P:problem=kreska pseudotaktowa	!	!	!	!	!	!	!
2C/	.	2G/	Ple-	2c/	et	.	.
!LO:LB:g=original	!	!	!	!	!	!	!
=31-	=31-	=31-	=31-	=31-	=31-	=31-	=31-
2.D/	ter-	2G/	-ni	1A/	ter-	.	.
.	.	2F/	sunt	.	.	.	.
4C/	.	.	.	.	.	.	.
!	!	!	!	!LO:TX:t=P:problem=kreska pseudotaktowa	!	!	!
2BB-/	.	1B-\	cae-	1G/	-ra	2r	.
2GG/	.	.	.	.	.	2g\	Ple-
=32-	=32-	=32-	=32-	=32-	=32-	=32-	=32-
!LO:TX:t=P:problem=kreska pseudotaktowa	!	!LO:TX:t=P:problem=kreska pseudotaktowa	!	!	!	!	!
1D\	-ra	1A\	-li	2r	.	2g\	-ni
!	!	!	!	!	!	!LO:TX:t=P:problem=kreska pseudotaktowa	!
.	.	.	.	1d\	et	2f/	sunt
00r	.	2.G/	et	.	.	2.b-\	cae-
.	.	.	.	2.G/	.	.	.
.	.	4A/	.	.	.	4a\	.
=33-	=33-	=33-	=33-	=33-	=33-	=33-	=33-
.	.	4B-\	.	.	.	2g/	.
.	.	4c\	.	4A/	.	.	.
!	!	!	!	!LO:TX:t=P:problem=kreska pseudotaktowa	!	!	!
.	.	2.d\	.	2B-/	ter-	2f/	.
!	!	!	!	!	!	!LO:TX:t=P:global:problem=oddech jako rozdzielacz słów, przeważnie na wysokości dźwięku poprzedzającego	!
.	.	.	.	2c/	.	2e,/	-li
.	.	4c\	.	.	.	.	.
!	!	!	!	!	!	!LO:TX:t=P:problem=kreska pseudotaktowa	!
.	.	1c\	.	2F/	-ra	2f/	et
=34-	=34-	=34-	=34-	=34-	=34-	=34-	=34-
*	*	*	*	*custos:A	*	*	*
!	!	!	!	!LO:TX:t=P:problem=kreska pseudotaktowa	!	!	!
.	.	.	.	1G/	.	1d/	ter-
!	!	!LO:TX:t=P:problem=kreska pseudotaktowa	!	!	!	!	!
.	.	2B-\	.	.	.	.	.
!	!	!	!	!LO:LB:g=original	!	!	!
!	!	!	!	!	!	!LO:TX:t=P:problem=kreska pseudotaktowa	!
2r	.	2.c\	Ter-	2.A/	ter-	1c/,	-ra
2F\	Ple-	.	.	.	.	.	.
.	.	4B-\	.	4B-/	.	.	.
!	!	!	!	!	!	!LO:LB:g=original	!
=35-	=35-	=35-	=35-	=35-	=35-	=35-	=35-
2F\	-ni	2A/	.	00c\	-ra	1r	.
!LO:TX:t=P:problem=kreska pseudotaktowa	!	!	!	!	!	!	!
2E\	sunt	2G/	.	.	.	.	.
2.A\	cae-	1F/	.	.	.	2r	.
.	.	.	.	.	.	2f/	Ple-
4G\	.	.	.	.	.	.	.
=36-	=36-	=36-	=36-	=36-	=36-	=36-	=36-
!	!	!LO:TX:t=P:problem=kreska pseudotaktowa	!	!LO:TX:t=P:problem=kreska pseudotaktowa	!	!	!
2A\	.	1C/	-ra	.	.	2f/	-ni
!	!	!	!	!	!	!LO:TX:t=P:problem=kreska pseudotaktowa	!
2.G\	.	.	.	.	.	2e/	sunt
*	*	*custos:c	*	*	*	*	*
!	!	!LO:TX:t=P:problem=kreska pseudotaktowa	!	!	!	!	!
.	.	1r	.	.	.	2.a\	cae-
4F\	.	.	.	.	.	.	.
1F\	.	.	.	.	.	.	.
.	.	.	.	.	.	4g\	.
!	!	!LO:LB:g=original	!	!	!	!	!
=37-	=37-	=37-	=37-	=37-	=37-	=37-	=37-
.	.	1c\	et	0r	.	2a,\	-li
2E\	-li	.	.	.	.	2.g\	et
*lig	*	*	*	*	*	*	*
1F\	et	2c\	ter-	.	.	.	.
.	.	.	.	.	.	4f/	.
.	.	1d\	.	.	.	1f/	.
=38-	=38-	=38-	=38-	=38-	=38-	=38-	=38-
1G\	.	.	.	1B-/	glo-	.	.
.	.	4c\	.	.	.	2e/	.
.	.	4B-\	.	.	.	.	.
*Xlig	*	*	*	*	*	*	*
!	!	!LO:TX:t=P:problem=kreska pseudotaktowa	!	!	!	!	!
1F\	ter-	1c\	-ra	2B-/	-ri-	1f/	ter-
.	.	.	.	2A/	-a	.	.
=39-	=39-	=39-	=39-	=39-	=39-	=39-	=39-
!LO:TX:t=P:problem=kreska pseudotaktowa	!	!	!	!	!	!	!
1BB-/	-ra	2r	.	2.d\	tu-	00f/	-ra
.	.	2B-\	glo-	.	.	.	.
.	.	.	.	4c/	.	.	.
1r	.	2B-\	-ri-	2d\	.	.	.
!	!	!LO:TX:t=P:problem=kreska pseudotaktowa	!	!LO:TX:t=P:problem=kreska pseudotaktowa	!	!	!
.	.	2A\	-a	2c/	.	.	.
=40-	=40-	=40-	=40-	=40-	=40-	=40-	=40-
!	!	!	!	!	!	!LO:TX:t=P:problem=kreska pseudotaktowa	!
2r	.	2.d\	glo-	2.B-/	.	.	.
2BB-/	glo-	.	.	.	.	.	.
.	.	4c\	.	8A/L	.	.	.
.	.	.	.	8G/J	.	.	.
2BB-/	-ri-	2d\	.	0F/	.	.	.
2AA/	-a	2.c\	ri-	.	.	.	.
=41-	=41-	=41-	=41-	=41-	=41-	=41-	=41-
!LO:TX:t=P:problem=kreska pseudotaktowa	!	!	!	!	!	!	!
1D\	glo-	.	.	.	.	2r	.
.	.	4B-\	-a	.	.	.	.
.	.	2B-\	tu-	.	.	2f/	glo-
2.C/	.	2A\	.	0.c\	-a	2f/	-ri-
!	!	!LO:TX:t=P:problem=kreska pseudotaktowa	!	!	!	!	!
.	.	2G,/	-a	.	.	2e/	-a
4BB-/	.	.	.	.	.	.	.
=42-	=42-	=42-	=42-	=42-	=42-	=42-	=42-
!	!	!	!	!LO:TX:t=P:problem=kreska pseudotaktowa	!	!	!
2AA/	.	2r	.	.	.	2.a\	glo-
2FF/	.	1F/	glo-	.	.	.	.
!	!	!	!	!	!	!LO:TX:t=P:problem=kreska pseudotaktowa	!
.	.	.	.	.	.	4g\	.
1C/	.	.	.	.	.	2a\	.
.	.	2E/	.	.	.	2.g\	.
=43-	=43-	=43-	=43-	=43-	=43-	=43-	=43-
!LO:TX:t=P:problem=kreska pseudotaktowa	!	!	!	!	!	!	!
1FF/	.	2.A\	.	2r	.	.	.
.	.	.	.	.	.	4f/	-ri-
.	.	.	.	1c\	glo-	1f/	-a
.	.	4G/	.	.	.	.	.
1C/	.	2A/	.	.	.	.	.
!	!	!	!	!LO:TX:t=P:problem=kreska pseudotaktowa	!	!	!
.	.	2.G/	.	2c\	-ri-	2e/	.
=44-	=44-	=44-	=44-	=44-	=44-	=44-	=44-
*	*	*	*	*	*	*lig	*
2AA/	ri-	.	.	2c\	-a	1f/	tu-
.	.	4F/	-ri-	.	.	.	.
2BB-/	-a	1F/	-a	1d\	tu-	.	.
*custos:F	*	*	*	*	*	*	*
!LO:TX:t=P:problem=kreska pseudotaktowa	!	!	!	!	!	!	!
1GG/	tu-	.	.	.	.	1g\	.
.	.	2E/	tu-	4c/	.	.	.
.	.	.	.	4B-/	.	.	.
!	!	!	!	!LO:TX:t=P:problem=kreska pseudotaktowa	!	!	!
*	*	*	*	*	*	*Xlig	*
!LO:LB:g=original	!	!	!	!	!	!	!
=45-	=45-	=45-	=45-	=45-	=45-	=45-	=45-
*	*	*	*	*lig	*	*	*
2FF,/	-a	1F/	.	1A/	.	00c/	-a
2F\	glo-	.	.	.	.	.	.
!	!	!LO:TX:t=P:problem=kreska pseudotaktowa	!	!	!	!	!
2F\	-ri-	1C/	-a	1G/	.	.	.
2E\	-a	.	.	.	.	.	.
*	*	*	*	*Xlig	*	*	*
=46-	=46-	=46-	=46-	=46-	=46-	=46-	=46-
!	!	!	!	!LO:TX:t=P:problem=kreska pseudotaktowa	!	!LO:TX:t=P:problem=kreska pseudotaktowa	!
2.A\	glo-	2r	.	1F/	-a	.	.
.	.	2F/	glo-	.	.	.	.
!LO:TX:t=P:problem=kreska pseudotaktowa	!	!	!	!	!	!	!
4G\	.	.	.	.	.	.	.
2A\	.	2F/	-ri-	1.c\	glo-	.	.
!	!	!LO:TX:t=P:problem=kreska pseudotaktowa	!	!	!	!	!
2.G\	.	2E/	-a	.	.	.	.
!	!	!LO:LB:g=original	!	!	!	!	!
=47-	=47-	=47-	=47-	=47-	=47-	=47-	=47-
.	.	2.A/	glo-	.	.	2r	.
4F\	.	.	.	.	.	.	.
2F\	.	.	.	2c\	-ri-	2f/	glo-
.	.	4G/	.	.	.	.	.
2C/	.	2A/	.	1c\	-â	2f/	-ri-
!	!	!	!	!	!	!LO:TX:t=P:problem=kreska pseudotaktowa	!
2C/	-ri-	2.G/	.	.	.	2e/	-a
=48-	=48-	=48-	=48-	=48-	=48-	=48-	=48-
*	*	*	*	*	*	*	*ij
2AA/	-a	.	.	0c\	tu-	2.a\	glo-
.	.	4F/	-ri-	.	.	.	.
!LO:TX:t=P:problem=kreska pseudotaktowa	!	!	!	!	!	!	!
2FF/	.	1F/	-a	.	.	.	.
.	.	.	.	.	.	4g\	-ri-
1C/	Tu-	.	.	.	.	2a\	-a
.	.	2E/	.	.	.	2.g/	glo-
=49-	=49-	=49-	=49-	=49-	=49-	=49-	=49-
2.FF/	.	0A\	tu-	00c\;	-â.	.	.
.	.	.	.	.	.	4f/	-ri-
.	.	.	.	.	.	1f/	-a
4GG/	.	.	.	.	.	.	.
2.AA/	.	.	.	.	.	.	.
*	*	*	*	*	*	*	*Xij
.	.	.	.	.	.	4e/	tu-
4BB-/	.	.	.	.	.	4d/	.
=50-	=50-	=50-	=50-	=50-	=50-	=50-	=50-
!	!	!LO:TX:t=P:problem=kreska pseudotaktowa	!	!	!	!	!
0C/;	-â.	0G/	-a.	.	.	0e/;	-â
!LO:LB:g=original	!	!	!	!LO:LB:g=original	!	!LO:LB:g=original	!
=51||-	=51||-	=51||-	=51||-	=51||-	=51||-	=51||-	=51||-
*	*	*k[b-]	*	*	*	*	*
*M2/1	*	*M2/1	*	*M2/1	*	*M2/1	*
*met(C|)	*	*met(C|)	*	*met(C|)	*	*met(C|)	*
0F\	O-	0c\	O-	0f\	O-	0a\	O-
=52-	=52-	=52-	=52-	=52-	=52-	=52-	=52-
1G\	-san-	0B-\	-san-	1d\	.	0g\	-san-
!LO:TX:t=P:problem=kreska pseudotaktowa	!	!	!	!	!	!	!
1E-X\	-na	.	.	1e-X\	-san-	.	.
=53-	=53-	=53-	=53-	=53-	=53-	=53-	=53-
!	!	!LO:TX:t=P:problem=kreska pseudotaktowa	!	!LO:TX:t=P:problem=kreska pseudotaktowa	!	!LO:TX:t=P:problem=kreska pseudotaktowa	!
0F\	in	1A\,	-na	1c\	-na	1f/	-na
*	*	*	*	*	*	*	*ij
.	.	1c\	in	0f\	in	0a\	O-
=54-	=54-	=54-	=54-	=54-	=54-	=54-	=54-
1D\	ex-	1d\	ex-	.	.	.	.
*lig	*	*	*	*	*	*	*
1E-X\	-cel-	1B-\	-cel-	0e-X\	ex-	0g\	-san-
=55-	=55-	=55-	=55-	=55-	=55-	=55-	=55-
1C/	.	1c\,	-ſis.	.	.	.	.
*Xlig	*	*	*	*	*	*	*
!LO:TX:t=P:problem=kreska pseudotaktowa	!	!LO:TX:t=P:problem=kreska pseudotaktowa	!	!	!	!	!
1D\,	-ſis	1A\	O-	0.d\	-cel-	0f/	-na
=56-	=56-	=56-	=56-	=56-	=56-	=56-	=56-
!	!	!	!	!	!	!LO:TX:t=P:problem=kreska pseudotaktowa	!
*	*ij	*	*	*	*	*	*Xij
0BB-/	O-	0B-\	-san-	.	.	.	.
.	.	.	.	.	.	1g\	in
=57-	=57-	=57-	=57-	=57-	=57-	=57-	=57-
!	!	!	!	!LO:TX:t=P:problem=kreska pseudotaktowa	!	!	!
*	*	*	*	*	*	*lig	*
1C/	-san-	1G/,	-na	0c\	-sis	1e/	ex-
!LO:TX:t=P:problem=kreska pseudotaktowa	!	!	!	!	!	!	!
1AA/	-na	1A\	in	.	.	1f/	.
*	*	*	*	*	*	*Xlig	*
=58-	=58-	=58-	=58-	=58-	=58-	=58-	=58-
*	*	*	*	*	*ij	*	*
1BB-/	in	1F/	ex-	1B-/	O-	0d/	-cel-
1GG/	ex-	1G/	-cel-	1B-/	-san-	.	.
=59-	=59-	=59-	=59-	=59-	=59-	=59-	=59-
*lig	*	*	*	*	*	*	*
!	!	!LO:TX:t=P:problem=kreska pseudotaktowa	!	!LO:TX:t=P:problem=kreska pseudotaktowa	!	!	!
1AA/	-cel-	1E/	-ſis	1A/	-na	2c,/	-sis
.	.	.	.	.	.	2.cc\	in
1FF/	.	2r	.	0c\	in	.	.
.	.	.	.	.	.	4b-\	.
.	.	2.c\	O-	.	.	2a\	ex-
!	!	!	!	!	!	!LO:TX:t=P:problem=kreska pseudotaktowa	!
*Xlig	*	*	*	*	*	*	*
=60-	=60-	=60-	=60-	=60-	=60-	=60-	=60-
!LO:TX:a:t=4	!	!	!	!	!	!	!
00C\	.	.	.	.	.	2g/	-cel-
.	.	4B-\	.	.	.	.	.
*	*	*custos:G	*	*	*	*	*
!	!	!LO:TX:t=P:problem=kreska pseudotaktowa	!	!	!	!	!
.	.	2A\	.	.	.	2f/	.
!	!	!LO:LB:g=original	!	!	!	!	!
.	.	2G/	-san-	1c\	ex-	2e/	.
.	.	2F,/	-na	.	.	2a\	.
=61-	=61-	=61-	=61-	=61-	=61-	=61-	=61-
.	.	2E/	in	0c\	-cel-	2g\	.
.	.	2A/	ex-	.	.	1f/	.
.	.	1G/	-cel-	.	.	.	.
!	!	!	!	!	!	!LO:TX:t=P:problem=kreska pseudotaktowa	!
.	.	.	.	.	.	2e/	.
=62-	=62-	=62-	=62-	=62-	=62-	=62-	=62-
!LO:TX:t=P:problem=kreska pseudotaktowa	!	!LO:TX:t=P:problem=kreska pseudotaktowa	!	!	!	!	!
1FF/	-sis	1F/	-ſis	2A,/	-sis	2.f/	.
*	*	*	*	*	*Xij	*	*
.	.	.	.	2.f\	in	.	.
.	.	.	.	.	.	4g/	.
2r	.	2r	.	.	.	1a\	-sis
.	.	.	.	4e\	.	.	.
!	!	!	!	!LO:TX:t=P:problem=kreska pseudotaktowa	!	!	!
*	*Xij	*	*	*	*	*	*
2.F\	O-	2.A/	in	2d\	ex-	.	.
=63-	=63-	=63-	=63-	=63-	=63-	=63-	=63-
!	!	!	!	!	!	!LO:TX:t=P:problem=kreska pseudotaktowa	!
!	!	!	!	!	!	!LO:TX:a:t=2	!
.	.	.	.	2c/	-cel-	0r	.
4E/	.	4G/	.	.	.	.	.
!LO:TX:t=P:problem=kreska pseudotaktowa	!	!	!	!	!	!	!
2D/	-san-	2F/	ex-	2B-/	.	.	.
2C/	.	2E/	-cel-	2A/	.	.	.
2BB-,/	-na	2D/	.	2G/	.	.	.
=64-	=64-	=64-	=64-	=64-	=64-	=64-	=64-
!	!	!LO:TX:t=P:problem=kreska pseudotaktowa	!	!	!	!	!
1AA/	in	1E/,	-ſis	2.A/	.	2r	.
.	.	.	.	.	.	2.cc\	in
.	.	.	.	4B-/	.	.	.
1FF/	ex-	2r	.	0c\	.	.	.
.	.	.	.	.	.	4b-\	.
.	.	(2.c\	in	.	.	2a\	ex-
=65-	=65-	=65-	=65-	=65-	=65-	=65-	=65-
!LO:TX:t=P:problem=kreska pseudotaktowa	!	!	!	!	!	!	!
[0C/	-cel-	.	.	.	.	2g/	.
.	.	4B-\)	.	.	.	.	.
.	.	2A\	ex-	.	.	2f/	-cel-
!	!	!	!	!LO:TX:t=P:problem=kreska pseudotaktowa	!	!	!
.	.	2G/	-cel-	1c\	.	2e/	.
.	.	2F/	.	.	.	2a\	.
=66-	=66-	=66-	=66-	=66-	=66-	=66-	=66-
0C/]	.	2E/	.	0c\	.	2g/	.
.	.	2A/	.	.	.	1f/	.
.	.	1G/	.	.	.	.	.
.	.	.	.	.	.	2e/	.
=67-	=67-	=67-	=67-	=67-	=67-	=67-	=67-
!	!	!LO:TX:b:t=Benedictus Verta[tur]	!	!LO:TX:b:t=V[olti] S[ubito]	!	!	!
0FF/;	-sis.	0F/;	-sis.	0A/;	-sis.	0f/;	-sis.
!LO:LB:g=original	!	!LO:PB:g=original	!	!LO:PB:g=original	!	!LO:LB:g=original	!
=68||-	=68||-	=68||-	=68||-	=68||-	=68||-	=68||-	=68||-
*M2/1	*	*M2/1	*	*M2/1	*	*M2/1	*
*met(C|)	*	*met(C|)	*	*met(C|)	*	*met(C|)	*
!	!	!	!	!	!	!LO:TX:t=P:problem=kreska pseudotaktowa	!
00r	.	00r	.	0f\	Be-	1r	.
.	.	.	.	.	.	0cc\	Be-
=69-	=69-	=69-	=69-	=69-	=69-	=69-	=69-
.	.	.	.	1e\	-ne-	.	.
.	.	.	.	1.d\	-di-	1b-\	-ne-
=70-	=70-	=70-	=70-	=70-	=70-	=70-	=70-
00r	.	00r	.	.	.	1.a\	-di-
.	.	.	.	4c/	.	.	.
!	!	!	!	!LO:TX:t=P:problem=kreska pseudotaktowa	!	!	!
.	.	.	.	4B-/	.	.	.
.	.	.	.	2A/	-ctus	.	.
.	.	.	.	2B-/	.	4g/	.
!	!	!	!	!	!	!LO:TX:t=P:problem=kreska pseudotaktowa	!
.	.	.	.	.	.	4f/	.
=71-	=71-	=71-	=71-	=71-	=71-	=71-	=71-
.	.	.	.	2c/	qui	2e/	ctus
!	!	!	!	!LO:TX:t=P:problem=kreska pseudotaktowa	!	!	!
.	.	.	.	2A/	ve-	2f/	.
.	.	.	.	4G/	.	2g\	qui
.	.	.	.	4A/	.	.	.
.	.	.	.	4B-/	.	4d/	.
.	.	.	.	4c/	.	4e/	.
=72-	=72-	=72-	=72-	=72-	=72-	=72-	=72-
!LO:TX:t=P:problem=kreska pseudotaktowa	!	!LO:TX:t=P:problem=kreska pseudotaktowa	!	!	!	!	!
00r	.	1r	.	4d/	.	4f/	Ve-
.	.	.	.	4e/	.	4g/	.
.	.	.	.	1f\	.	4a/	.
!	!	!	!	!	!	!LO:TX:t=P:problem=kreska pseudotaktowa	!
.	.	.	.	.	.	4f/	.
.	.	0c\	Be-	.	.	2.g\	.
.	.	.	.	4e\	.	.	.
!	!	!	!	!LO:TX:t=P:problem=kreska pseudotaktowa	!	!	!
.	.	.	.	4d\	.	4f/	.
=73-	=73-	=73-	=73-	=73-	=73-	=73-	=73-
.	.	.	.	1e\	.	2g\	.
.	.	.	.	.	.	1a\	.
!	!	!	!	!LO:TX:t=P:problem=kreska pseudotaktowa	!	!	!
.	.	1B-\	-ne-	1d\	-nit,	.	.
!	!	!	!	!	!	!LO:TX:t=P:problem=kreska pseudotaktowa	!
.	.	.	.	.	.	2g\	.
=74-	=74-	=74-	=74-	=74-	=74-	=74-	=74-
!	!	!	!	!LO:TX:t=P::problem=kreska pseudotaktowa&colon;między nutą a kropką	!	!LO:TX:t=P:problem=kreska pseudotaktowa	!
0F\	Be-	1.A\	-di-	1r	.	0a\	-nit
.	.	.	.	[<1c\	Be-	.	.
.	.	4G/	.	.	.	.	.
.	.	4F/	.	.	.	.	.
=75-	=75-	=75-	=75-	=75-	=75-	=75-	=75-
!	!	!	!	!LO:N:xstem:cue:vis	!	!	!
1E\	-ne-	1G/	.	2c\]	.	00r	.
.	.	.	.	2c/	-ne-	.	.
!	!	!LO:TX:t=P:problem=kreska pseudotaktowa	!	!	!	!	!
1.D\	-di-	1F/	-ctus	1B-/	-di-	.	.
=76-	=76-	=76-	=76-	=76-	=76-	=76-	=76-
.	.	0f\	Be-	1.A/	.	.	.
4C/	.	.	.	.	.	.	.
4BB-/	.	.	.	.	.	.	.
2AA/	-ctus	.	.	.	.	.	.
!LO:TX:t=P:problem=kreska pseudotaktowa	!	!	!	!	!	!	!
2BB-/	.	.	.	4G/	.	.	.
!	!	!	!	!LO:TX:t=P:problem=kreska pseudotaktowa	!	!	!
.	.	.	.	4F/	.	.	.
=77-	=77-	=77-	=77-	=77-	=77-	=77-	=77-
!	!	!	!	!	!	!LO:TX:t=P:problem=kreska pseudotaktowa	!
1C/	qui	1e\	ne-	2A/	ct(us)	0r	.
.	.	.	.	2G/	qui	.	.
1.BB-/	ve-	1.d\	-di-	1B-/	ve-	.	.
=78-	=78-	=78-	=78-	=78-	=78-	=78-	=78-
!	!	!	!	!LO:TX:t=P:problem=kreska pseudotaktowa	!	!	!
.	.	.	.	1F/	-nit	0f/	Be-
2AA/	.	4c\	.	.	.	.	.
.	.	4B-\	.	.	.	.	.
!	!	!	!	!LO:TX:t=P:problem=kreska pseudotaktowa	!	!	!
1D\	.	2A\	.	1r	.	.	.
.	.	2B-\	.	.	.	.	.
!	!	!	!	!LO:LB:g=original	!	!	!
=79-	=79-	=79-	=79-	=79-	=79-	=79-	=79-
*lig	*	*	*	*	*	*	*
!	!	!	!	!LO:TX:t=P:problem=kreska pseudotaktowa	!	!	!
1C/	.	2c\	.	1r	.	1e/	-ne-
!	!	!LO:TX:t=P:problem=kreska pseudotaktowa	!	!	!	!	!
.	.	2G/	.	.	.	.	.
1BB-/	.	1B-\	.	0f\	Be-	2.d/	-di-
.	.	.	.	.	.	4e/	.
*Xlig	*	*	*	*	*	*	*
=80-	=80-	=80-	=80-	=80-	=80-	=80-	=80-
!LO:TX:t=P:problem=kreska pseudotaktowa	!	!	!	!	!	!	!
1FF/	-nit	2A,\	-ctus	.	.	4f/	.
.	.	.	.	.	.	4g/	.
.	.	4F/	qui	.	.	4a/	.
.	.	4G/	.	.	.	4b-/	.
0r	.	4A\	.	1e\	-ne-	2cc\	.
.	.	4B-\	.	.	.	.	.
.	.	4c\	.	.	.	1a\	.
.	.	4A\	.	.	.	.	.
=81-	=81-	=81-	=81-	=81-	=81-	=81-	=81-
.	.	1B-\	ve-	1.d\	-di-	.	.
.	.	.	.	.	.	2g\	.
!	!	!LO:TX:t=P:problem=kreska pseudotaktowa	!	!	!	!	!
0F\	Be-	1A\,	-nit	.	.	0a\	-ctus
.	.	.	.	4c/	.	.	.
!	!	!	!	!LO:TX:t=P:problem=kreska pseudotaktowa	!	!	!
.	.	.	.	4B-/	.	.	.
=82-	=82-	=82-	=82-	=82-	=82-	=82-	=82-
!	!	!	!	!	!	!LO:TX:t=P:problem=kreska pseudotaktowa	!
.	.	0c\	Be-	2A/	.	.	.
.	.	.	.	4G/	.	.	.
.	.	.	.	4F/	.	.	.
1E\	-ne-	.	.	1G/	.	00r	.
=83-	=83-	=83-	=83-	=83-	=83-	=83-	=83-
1.D\	-di-	1B-\	ne-	2F/	-ctus	.	.
.	.	.	.	1f\	Qui	.	.
.	.	1.A\	-di-	.	.	.	.
4C/	.	.	.	4e\	.	.	.
!	!	!	!	!LO:TX:t=P:problem=kreska pseudotaktowa	!	!	!
4BB-/	.	.	.	4d\	.	.	.
=84-	=84-	=84-	=84-	=84-	=84-	=84-	=84-
2AA/	ctus	.	.	2c\	ve-	.	.
!LO:TX:t=P:problem=kreska pseudotaktowa	!	!	!	!	!	!	!
2BB-/	.	4G/	.	2d\	.	.	.
!	!	!LO:TX:t=P:problem=kreska pseudotaktowa	!	!	!	!	!
.	.	4F/	.	.	.	.	.
!	!	!LO:LB:g=original	!	!	!	!LO:LB:g=original	!
2C/	qui	2E/	.	2G/	.	1cc\	Be-
2AA/	ve-	2F/	.	2A/	.	.	.
=85-	=85-	=85-	=85-	=85-	=85-	=85-	=85-
!	!	!LO:TX:t=P:problem=kreska pseudotaktowa	!	!	!	!	!
4GG/	.	1G/,	-ctus	1.d\	.	1b-\	-ne-
4AA/	.	.	.	.	.	.	.
4BB-/	.	.	.	.	.	.	.
!LO:TX:t=P:problem=kreska pseudotaktowa	!	!	!	!	!	!	!
4C/	.	.	.	.	.	.	.
4D\	.	2.F/	qui	.	.	1.a\	-di-
4E\	.	.	.	.	.	.	.
1F\	.	.	.	2c\	.	.	.
.	.	4G/	.	.	.	.	.
=86-	=86-	=86-	=86-	=86-	=86-	=86-	=86-
!	!	!	!	!LO:TX:t=P:problem=kreska pseudotaktowa	!	!	!
.	.	4A\	.	1c\	-nit	.	.
.	.	4B-\	.	.	.	.	.
4E\	.	1c\	Ve-	.	.	4g/	.
!LO:TX:t=P:problem=kreska pseudotaktowa	!	!	!	!	!	!LO:TX:t=P:problem=kreska pseudotaktowa	!
4D\	.	.	.	.	.	4f/	.
!LO:LB:g=original	!	!	!	!	!	!	!
2C/	.	.	.	0r	.	2e,/	-ctus
2D/	.	4B-\	.	.	.	2f/	qui
!	!	!LO:TX:t=P:problem=kreska pseudotaktowa	!	!	!	!	!
.	.	4A\	.	.	.	.	.
=87-	=87-	=87-	=87-	=87-	=87-	=87-	=87-
2E\	.	2G/	.	.	.	2g/	.
2C/	.	1c\	.	.	.	2e/	ve-
!	!	!	!	!LO:TX:t=P:problem=kreska pseudotaktowa	!	!	!
1G\	.	.	.	1r	.	1d/	.
.	.	2B-\	.	.	.	.	.
=88-	=88-	=88-	=88-	=88-	=88-	=88-	=88-
!LO:TX:t=P:problem=kreska pseudotaktowa	!	!LO:TX:t=P:problem=kreska pseudotaktowa	!	!	!	!LO:TX:t=P:problem=kreska pseudotaktowa	!
0C/	-nit	1c\	-nit	2r	.	0e/	-nit
!	!	!	!	!LO:TX:t=P:problem=kreska pseudotaktowa	!	!	!
.	.	.	.	2c\	in	.	.
.	.	2r	.	2c\	No-	.	.
.	.	2c\	in	2c\	-mi-	.	.
=89-	=89-	=89-	=89-	=89-	=89-	=89-	=89-
00r	.	2c\	No-	2.A/	-ne	2r	.
.	.	2c\	-mi-	.	.	2cc\	in
.	.	.	.	4B-/	.	.	.
.	.	2.A\	-ne	2.c\	.	2cc\	No-
.	.	.	.	.	.	2cc\	-mi-
!	!	!	!	!LO:TX:t=P:problem=kreska pseudotaktowa	!	!	!
.	.	4B-\	.	4d\	.	.	.
=90-	=90-	=90-	=90-	=90-	=90-	=90-	=90-
.	.	2c\	.	2e\	.	2.a\	-ne
!	!	!LO:TX:t=P:problem=kreska pseudotaktowa	!	!	!	!	!
.	.	2d\	.	2f\	.	.	.
!	!	!	!	!	!	!LO:TX:t=P:problem=kreska pseudotaktowa	!
.	.	.	.	.	.	4b-\	.
.	.	2A\	Do-	2e\	Do-	2cc\	.
.	.	2.d\	.	2.f\	.	2.b-\	Do-
=91-	=91-	=91-	=91-	=91-	=91-	=91-	=91-
!LO:TX:t=P:problem=kreska pseudotaktowa	!	!	!	!	!	!	!
0r	.	.	.	.	.	.	.
.	.	4c\	.	4e\	.	4a\	.
!	!	!	!	!LO:TX:t=P:problem=kreska pseudotaktowa	!	!	!
.	.	2A\	.	2c\	.	1a\	.
!	!	!	!	!LO:LB:g=original	!	!	!
.	.	2B-\	.	2d\	.	.	.
.	.	2c\	-mi-	2e\	-mi-	2g\	-mi-
=92-	=92-	=92-	=92-	=92-	=92-	=92-	=92-
!	!	!LO:TX:t=P:problem=kreska pseudotaktowa	!	!LO:TX:t=P:problem=kreska pseudotaktowa	!	!LO:TX:t=P:problem=kreska pseudotaktowa	!
2r	.	1F/	-ni	1f\	-ni,	0a\	-ni
2F\	in	.	.	.	.	.	.
2F\	No-	1r	.	2r	.	.	.
!LO:TX:t=P:problem=kreska pseudotaktowa	!	!	!	!	!	!	!
2F\	-mi-	.	.	2f\	in	.	.
=93-	=93-	=93-	=93-	=93-	=93-	=93-	=93-
!	!	!	!	!	!	!LO:N:vis=7	!
2.D\	-ne	2r	.	2f\	No-	0r	.
.	.	2A\	in	2f\	-mi-	.	.
4E\	.	.	.	.	.	.	.
2F\	.	2A\	No-	2.d\	-ne	.	.
!LO:TX:t=P:problem=kreska pseudotaktowa	!	!LO:TX:t=P:problem=kreska pseudotaktowa	!	!	!	!	!
2G\	.	2B-\	-mi-	.	.	.	.
.	.	.	.	4e\	.	.	.
=94-	=94-	=94-	=94-	=94-	=94-	=94-	=94-
!	!	!	!	!LO:TX:t=P:problem=kreska pseudotaktowa	!	!	!
2A\	.	2c\	-ne	1f\	.	2r	.
2.B-\	Do-	2.d\	.	.	.	2f/	in
.	.	.	.	0r	.	2f/	No-
4A\	.	4c\	.	.	.	.	.
!LO:TX:t=P:problem=kreska pseudotaktowa	!	!	!	!	!	!LO:TX:t=P:problem=kreska pseudotaktowa	!
2F\	.	1c\	.	.	.	2f/	-mi-
=95-	=95-	=95-	=95-	=95-	=95-	=95-	=95-
1G\	.	.	.	.	.	2.d/	-ne
!	!	!LO:TX:t=P:problem=kreska pseudotaktowa	!	!	!	!	!
.	.	2B-\	.	.	.	.	.
.	.	.	.	.	.	4e/	.
!	!	!LO:LB:g=original	!	!	!	!	!
!	!	!	!	!LO:TX:t=P:problem=kreska pseudotaktowa	!	!	!
2F\	.	2A/	Do-	1r	.	2f/	.
2E\	.	2G/	.	.	.	2.g/	Do-
=96-	=96-	=96-	=96-	=96-	=96-	=96-	=96-
2.F\	.	1A\	.	1c\	in	.	.
.	.	.	.	.	.	4f/	.
.	.	.	.	.	.	1f/	.
4F\	-mi-	.	.	.	.	.	.
!LO:TX:t=P:problem=kreska pseudotaktowa	!	!	!	!	!	!	!
1C/	-ni,	2.G/	.	2c\	No-	.	.
*	*	*	*	*	*	*custos:f	*
!	!	!	!	!LO:TX:t=P:problem=kreska pseudotaktowa	!	!LO:TX:t=P:problem=kreska pseudotaktowa	!
.	.	.	.	2c\	-mi-	2e/	mi-
.	.	4G/	mi-	.	.	.	.
!	!	!	!	!	!	!LO:LB:g=original	!
=97-	=97-	=97-	=97-	=97-	=97-	=97-	=97-
!	!	!LO:TX:t=P:problem=kreska pseudotaktowa	!	!	!	!	!
2r	.	1F/	-ni	2.A/	-ne	2f,/	-ni
2F\	in	.	.	.	.	2.a\	Do-
.	.	.	.	4B-/	.	.	.
2F\	No-	0r	.	2c\	.	.	.
.	.	.	.	.	.	4g/	.
!LO:TX:t=P:problem=kreska pseudotaktowa	!	!	!	!	!	!	!
*	*	*	*	*lig	*	*	*
2F\	-mi-	.	.	1d\	Do-	1f/	.
=98-	=98-	=98-	=98-	=98-	=98-	=98-	=98-
2D\	-ne	.	.	.	.	.	.
2E\	.	.	.	1c\	.	2e/	.
2F\	.	1r	.	.	.	2d/	.
!	!	!LO:TX:t=P:problem=kreska pseudotaktowa	!	!	!	!	!
*	*	*	*	*Xlig	*	*	*
2G\	.	.	.	2B-/	-mi-	2d/	-mi-
!LO:LB:g=original	!	!	!	!	!	!	!
=99-	=99-	=99-	=99-	=99-	=99-	=99-	=99-
!	!	!	!	!LO:TX:t=P:problem=kreska pseudotaktowa	!	!LO:TX:t=P:problem=kreska pseudotaktowa	!
2.A\	Do-	2r	.	1c\	-ni.	1c/	-ni
.	.	2c\	in	.	.	.	.
4G\	.	.	.	.	.	.	.
2F\	.	2c\	No-	1r	.	2r	.
2E\	-mi-	2c\	-mi-	.	.	2cc\	in
=100-	=100-	=100-	=100-	=100-	=100-	=100-	=100-
!LO:TX:t=P:problem=kreska pseudotaktowa	!	!LO:TX:t=P:problem=kreska pseudotaktowa	!	!	!	!	!
1F\	-ni	1A\	-ne	2r	.	2cc\	No-
!	!	!	!	!LO:TX:t=P:problem=kreska pseudotaktowa	!	!LO:TX:t=P:problem=kreska pseudotaktowa	!
.	.	.	.	2c\	in	2cc\	-mi-
2r	.	2.F/	Do-	2c\	No-	2.a\	-ne
2F\	in	.	.	2c\	-mi-	.	.
.	.	4G/	.	.	.	4b-\	.
=101-	=101-	=101-	=101-	=101-	=101-	=101-	=101-
2F\	No-	4A/	.	2A,/	-ne	4cc\	.
.	.	4B-/	.	.	.	4b-\	.
!LO:TX:t=P:problem=kreska pseudotaktowa	!	!LO:TX:t=P:problem=kreska pseudotaktowa	!	!	!	!	!
2F\	-mi-	2c\	.	1f\	Do-	4a\	.
!	!	!	!	!	!	!LO:TX:t=P:problem=kreska pseudotaktowa	!
.	.	.	.	.	.	4g\	.
2D\	-ne	2d\	.	.	.	2f/	Do-
2E\	.	4c\	.	4e\	.	2.g/	.
!	!	!	!	!LO:TX:t=P:problem=kreska pseudotaktowa	!	!	!
.	.	4B-\	.	4d\	.	.	.
=102-	=102-	=102-	=102-	=102-	=102-	=102-	=102-
2F\	.	2A\	.	2c\	.	.	.
.	.	.	.	.	.	4f/	.
!LO:TX:t=P:problem=kreska pseudotaktowa	!	!	!	!	!	!	!
2BB-/	Do-	2B-\	.	2d\	.	1f/	.
2.C/	.	2.G/	.	2.c\	.	.	.
.	.	.	.	.	.	2e/	-mi-
4C/	-mi-	4G/	-mi-	4c\	-mi-	.	.
=103-	=103-	=103-	=103-	=103-	=103-	=103-	=103-
!LO:TX:a:t=Osanna Da Capo	!	!LO:TX:a:t=Osanna\nDa Capo.	!	!	!	!	!
00FF/;	-ni.	00F/;	-ni.	00A/;	-ni.	00f/	-ni.
!	!	!	!	!	!	!LO:TX:b:t=Agnus Vertat[ur]	!
!	!	!	!	!	!	!LO:TX:a:t=Osanna Da Capo	!
==	==	==	==	==	==	==	==
*-	*-	*-	*-	*-	*-	*-	*-
!!!system-decoration: [(s1,s2,s3,s4)]
!!!RDF**kern: > = above
!!!RDF**kern: < = below
!!!EED: Leszek Kubiak
!!!EST: 2021-03-18
!!!AIN: 1 alto 1 bass 1 soprn 1 tenor
!!!ENC: Krzysztof Stępień
!!!END: 2021-03-02
